X:356
T:Ya Ribon Olam
Z:Jack Campin, http://www.campin.me.uk/
F:Jack Campin's Nine-Note Tunebook
% last edit 03-02-2013
S:clarinet arrangement off the web
N:this is Ashkenazic; Sephardic versions are quite different
M:C
L:1/16
Q:1/4=84
K:DMin
DFA2   DFA2  G2D2`D2D2|d4     cBAd   A4>>A4|
ABc2   ABc2  dcBA G2D2|F2FF (3GAG FG A4>>A4|
ABc2   ABc2  dcBA G2D2|F3F  (3GAG FE D8   ||
c3B/A/ G2GD ~FFED C4  |D2DD   FDFA   G4 d4 |
c3B/A/ G2GD ~FFED C4  |D2DD   FA2G   D8   |]

